src/asset/24px/home.svg

<svg width="24" height="24" viewBox="0 0 24 24" fill="none" xmlns="http://www.w3.org/2000/svg">
<path fill-rule="evenodd" clip-rule="evenodd" d="M12.5547 4.57164C12.2188 4.3477 11.7812 4.3477 11.4453 4.57164L3.55468 9.83204C3.09516 10.1384 2.47429 10.0142 2.16793 9.55469C1.86158 9.09516 1.98576 8.47429 2.44528 8.16794L10.3359 2.90754C11.3436 2.23574 12.6564 2.23574 13.6641 2.90754L21.5547 8.16794C22.0142 8.47429 22.1384 9.09516 21.832 9.55469C21.5257 10.0142 20.9048 10.1384 20.4453 9.83204L12.5547 4.57164ZM4.99998 9.99999C5.55227 9.99999 5.99998 10.4477 5.99998 11V18C5.99998 18.5523 6.4477 19 6.99998 19H8.99998V13C8.99998 12.4477 9.4477 12 9.99998 12H14C14.5523 12 15 12.4477 15 13V19H17C17.5523 19 18 18.5523 18 18V11C18 10.4477 18.4477 9.99999 19 9.99999C19.5523 9.99999 20 10.4477 20 11V18C20 19.6568 18.6568 21 17 21H6.99998C5.34313 21 3.99998 19.6568 3.99998 18V11C3.99998 10.4477 4.4477 9.99999 4.99998 9.99999ZM13 19V14H11V19H13Z" fill="#808080"/>
</svg>

<svg width="24" height="24" fill="none" xmlns="http://www.w3.org/2000/svg"><path fill-rule="evenodd" clip-rule="evenodd" d="M12.555 4.572a1 1 0 00-1.11 0l-7.89 5.26a1 1 0 01-1.11-1.664l7.89-5.26a3 3 0 013.33 0l7.89 5.26a1 1 0 01-1.11 1.664l-7.89-5.26zM5 10a1 1 0 011 1v7a1 1 0 001 1h2v-6a1 1 0 011-1h4a1 1 0 011 1v6h2a1 1 0 001-1v-7a1 1 0 112 0v7a3 3 0 01-3 3H7a3 3 0 01-3-3v-7a1 1 0 011-1zm8 9v-5h-2v5h2z" fill="gray"/></svg>
